static/assets/template/assets/img/icons/essential/detailed/Fit_3.svg

<svg height="150" viewBox="0 0 120 150" width="120" xmlns="http://www.w3.org/2000/svg"><g fill="none" fill-rule="evenodd" transform="translate(1 1)"><g fill-rule="nonzero"><path d="m111.2 146.2h-43.9l-.1.5c0-.2 0-.3 0-.5h-1.4c-1.3-15.8.6-32.7 7.5-38.3-2.9-.7-5.1-1.6-6.5-3l-.8-.8c-2.5-2.4-5.6-5.5-7-10.9-1.4 5.3-4.5 8.4-7 10.9l-.8.8c-1.4 1.4-3.6 2.4-6.5 3 6.8 5.6 8.7 22.6 7.5 38.3h-1.4v.5l-.1-.5h-43.4c-3.8-20.1-6.5-40.4-5.8-60.9 1.6-46.8 20-40.2 20-84.5h75.9c0 44.4 18.4 37.6 20 84.5.3 20.5-2.4 40.8-6.2 60.9z"/><path d="m111.2 146.2h-28.8c-4.8 0-8.6-3.8-8.7-8.6 0-12.9 2.2-25.2 7.8-29.7-2.9-.7-7.9-.2-9.3-1.6 0 0-10.1-2.8-13.4-13.1-1.4 5.3-4.5 8.4-7 10.9l-.8.8c-1.4 1.4-3.6 2.4-6.5 3h-.1c.1 0 .1.1.2.1 6.7 5.7 8.5 22.6 7.3 38.2h-1.4v.5l-.1-.5h-27.8c-5 0-9.3-3.6-10.2-8.5-3-17.3-4.9-34.8-4.3-52.4.6-16.7 3.3-26.6 6.5-34.4 1.9-4.5 3.9-8.3 5.8-12.4 3-6.4 5.8-13.3 7-24.3.8-7.6 7.3-13.4 15-13.4h54.6c0 2.7.1 5.2.2 7.5 2 36.3 18.4 32.9 19.8 77 .7 20.5-2 40.8-5.8 60.9z"/><path d="m58.2 51.2v29.4l-2.8 18.2-7 7-4.2 1.4.3.6.1.2 2.4 4.8 2.8 16.8s.2 13.6.8 13.1c.2-.1-.3 1.3-1.1 3.4-3 0-5.5-2.5-5.4-5.5.3-18-4.9-32-4.9-33.2 0-1.4 17.8-13.7 7.9-40.9l-1.4-1.4c-.1.1 12.5.1 12.5-13.9z" fill="#bad8ff"/><path d="m111.2 146.2h-8.5c.1-1.3.2-2.6.3-4 5.6-65.8 7-57.4-5.6-84-10-21-6.8-37.7-.2-50 2 36.3 18.4 32.9 19.8 77 .7 20.6-2 40.9-5.8 61z" fill="#bad8ff"/><path d="m106.3 45c-1.2-2.1-2.3-4.3-3.3-6.5h-82.5c-1.9 4-4 7.9-5.8 12.4 17.1 2.5 27.8 7.8 34.4 13.8 5.1 4.6 7.8 9.6 9.2 14 .2.8.4 1.5.6 2.3 2.1-9.3 9.9-22.7 36.1-28.6 4.1-.9 8.8-1.7 13.9-2.2-.8-1.9-1.7-3.6-2.6-5.2z"/><path d="m58.2 51.2v27.5c-1.3-4.4-4-9.4-9.2-14 3.7-1.2 9.2-4.3 9.2-13.5z"/><path d="m108.8 50.2c-5.1.5-9.7 1.3-13.9 2.2-1.8-4.9-2.9-9.5-3.5-13.9h11.5c1 2.2 2.1 4.4 3.3 6.5 1 1.6 1.9 3.3 2.6 5.2z"/></g><g stroke-linecap="round" stroke-linejoin="round" stroke-width="3"><path d="m20.9 7.7c-.7 13-3.6 24.8-10.3 36.5-6.8 12-9.1 27.4-9.6 41-.7 20.5 2 40.8 5.8 60.9"/><path d="m21.1.8v.3"/><path d="m97 .8c0 15.8 2.6 29.7 10.5 43.5 6.8 12 9.1 27.4 9.6 41 .7 20.5-2 40.8-5.8 60.9"/><path d="m22.4 37.1h80.9"/><path d="m50.4 146.7c1.6-19.3-1.6-36.1-8.8-38.9"/><path d="m25.3 107.8c11.2 0 21.2-.5 24.7-4s8.4-7.4 8.1-17.2c-.2-9.8-6.5-30.9-50-35.1"/><path d="m66.9 132c.7-12.6 3.8-22.1 9.1-24.2"/><path d="m66.8 136.6c0-1.6.1-3.2.1-4.7"/><path d="m67.2 146.7c0-.5-.1-1.1-.1-1.6"/><path d="m92.3 107.8c-11.2 0-21.2-.5-24.7-4s-8.4-7.4-8.1-17.2c.2-9.8 6.5-30.9 50-35.1"/></g></g></svg>

<?xml version="1.0" encoding="UTF-8"?>
<svg width="120px" height="150px" viewBox="0 0 120 150" version="1.1" xmlns="http://www.w3.org/2000/svg" xmlns:xlink="http://www.w3.org/1999/xlink">
    <!-- Generator: Sketch 51.2 (57519) - http://www.bohemiancoding.com/sketch -->
    <title>Fit_3</title>
    <desc>Created with Sketch.</desc>
    <defs></defs>
    <g id="Page-1" stroke="none" stroke-width="1" fill="none" fill-rule="evenodd">
        <g id="Fit_3" transform="translate(1.000000, 1.000000)">
            <path d="M111.2,146.2 L67.3,146.2 L67.2,146.7 C67.2,146.5 67.2,146.4 67.2,146.2 L65.8,146.2 C64.5,130.4 66.4,113.5 73.3,107.9 C70.4,107.2 68.2,106.3 66.8,104.9 L66,104.1 C63.5,101.7 60.4,98.6 59,93.2 C57.6,98.5 54.5,101.6 52,104.1 L51.2,104.9 C49.8,106.3 47.6,107.3 44.7,107.9 C51.5,113.5 53.4,130.5 52.2,146.2 L50.8,146.2 C50.8,146.4 50.8,146.5 50.8,146.7 L50.7,146.2 L7.3,146.2 C3.5,126.1 0.8,105.8 1.5,85.3 C3.1,38.5 21.5,45.1 21.5,0.8 L97.4,0.8 C97.4,45.2 115.8,38.4 117.4,85.3 C117.7,105.8 115,126.1 111.2,146.2 Z" id="Shape" class="fill-neutral" fill-rule="nonzero"></path>
            <path d="M111.2,146.2 L82.4,146.2 C77.6,146.2 73.8,142.4 73.7,137.6 C73.7,124.7 75.9,112.4 81.5,107.9 C78.6,107.2 73.6,107.7 72.2,106.3 C72.2,106.3 62.1,103.5 58.8,93.2 C57.4,98.5 54.3,101.6 51.8,104.1 L51,104.9 C49.6,106.3 47.4,107.3 44.5,107.9 C44.5,107.9 44.4,107.9 44.4,107.9 C44.5,107.9 44.5,108 44.6,108 C51.3,113.7 53.1,130.6 51.9,146.2 L50.5,146.2 C50.5,146.4 50.5,146.5 50.5,146.7 L50.4,146.2 L22.6,146.2 C17.6,146.2 13.3,142.6 12.4,137.7 C9.4,120.4 7.5,102.9 8.1,85.3 C8.7,68.6 11.4,58.7 14.6,50.9 C16.5,46.4 18.5,42.6 20.4,38.5 C23.4,32.1 26.2,25.2 27.4,14.2 C28.2,6.6 34.7,0.8 42.4,0.8 L97,0.8 C97,3.5 97.1,6 97.2,8.3 C99.2,44.6 115.6,41.2 117,85.3 C117.7,105.8 115,126.1 111.2,146.2 Z" id="Shape" class="fill-primary-100" fill-rule="nonzero"></path>
            <path d="M58.2,51.2 C58.2,79.2 58.2,80.6 58.2,80.6 L55.4,98.8 L48.4,105.8 L44.2,107.2 L44.5,107.8 L44.6,108 L47,112.8 L49.8,129.6 C49.8,129.6 50,143.2 50.6,142.7 C50.8,142.6 50.3,144 49.5,146.1 C46.5,146.1 44,143.6 44.1,140.6 C44.4,122.6 39.2,108.6 39.2,107.4 C39.2,106 57,93.7 47.1,66.5 L45.7,65.1 C45.6,65.2 58.2,65.2 58.2,51.2 Z" id="Shape" fill="#BAD8FF" fill-rule="nonzero"></path>
            <path d="M111.2,146.2 L102.7,146.2 C102.8,144.9 102.9,143.6 103,142.2 C108.6,76.4 110,84.8 97.4,58.2 C87.4,37.2 90.6,20.5 97.2,8.2 C99.2,44.5 115.6,41.1 117,85.2 C117.7,105.8 115,126.1 111.2,146.2 Z" id="Shape" fill="#BAD8FF" fill-rule="nonzero"></path>
            <path d="M106.3,45 C105.1,42.9 104,40.7 103,38.5 L20.5,38.5 C18.6,42.5 16.5,46.4 14.7,50.9 C31.8,53.4 42.5,58.7 49.1,64.7 C54.2,69.3 56.9,74.3 58.3,78.7 C58.5,79.5 58.7,80.2 58.9,81 C61,71.7 68.8,58.3 95,52.4 C99.1,51.5 103.8,50.7 108.9,50.2 C108.1,48.3 107.2,46.6 106.3,45 Z" id="Shape" class="fill-primary-400" fill-rule="nonzero"></path>
            <path d="M58.2,51.2 L58.2,78.7 C56.9,74.3 54.2,69.3 49,64.7 C52.7,63.5 58.2,60.4 58.2,51.2 Z" id="Shape" class="fill-primary-600" fill-rule="nonzero"></path>
            <path d="M108.8,50.2 C103.7,50.7 99.1,51.5 94.9,52.4 C93.1,47.5 92,42.9 91.4,38.5 L102.9,38.5 C103.9,40.7 105,42.9 106.2,45 C107.2,46.6 108.1,48.3 108.8,50.2 Z" id="Shape" class="fill-primary-600" fill-rule="nonzero"></path>
            <g id="Group" class="stroke-primary" stroke-linecap="round" stroke-linejoin="round" stroke-width="3">
                <path d="M20.9,7.7 C20.2,20.7 17.3,32.5 10.6,44.2 C3.8,56.2 1.5,71.6 1,85.2 C0.3,105.7 3,126 6.8,146.1" id="Shape"></path>
                <path d="M21.1,0.8 C21.1,0.9 21.1,1 21.1,1.1" id="Shape"></path>
                <path d="M97,0.8 C97,16.6 99.6,30.5 107.5,44.3 C114.3,56.3 116.6,71.7 117.1,85.3 C117.8,105.8 115.1,126.1 111.3,146.2" id="Shape"></path>
                <path d="M22.4,37.1 L103.3,37.1" id="Shape"></path>
                <path d="M50.4,146.7 C52,127.4 48.8,110.6 41.6,107.8" id="Shape"></path>
                <path d="M25.3,107.8 C36.5,107.8 46.5,107.3 50,103.8 C53.5,100.3 58.4,96.4 58.1,86.6 C57.9,76.8 51.6,55.7 8.1,51.5" id="Shape"></path>
                <path d="M66.9,132 C67.6,119.4 70.7,109.9 76,107.8" id="Shape"></path>
                <path d="M66.8,136.6 C66.8,135 66.9,133.4 66.9,131.9" id="Shape"></path>
                <path d="M67.2,146.7 C67.2,146.2 67.1,145.6 67.1,145.1" id="Shape"></path>
                <path d="M92.3,107.8 C81.1,107.8 71.1,107.3 67.6,103.8 C64.1,100.3 59.2,96.4 59.5,86.6 C59.7,76.8 66,55.7 109.5,51.5" id="Shape"></path>
            </g>
        </g>
    </g>
</svg>
